svg/free/bullhorn.svg

<svg version="1.1" xmlns="http://www.w3.org/2000/svg" width="24" height="24" viewBox="0 0 24 24">
<title>bullhorn</title>
<path d="M20.109 0.747l-11.886 5.625h-7.474v9.925l2.446 6.95h5.374l-2.183-6h1.68l12.143 6.003h3.034l0.004-22.503zM7.5 15.747h-2.626l0.003 1.732 1.552 4.268h-2.17l-2.009-5.706v-8.169h5.25zM9.005 7.661l8.244-3.901v16.353l-8.244-4.076zM21.746 21.75h-1.184l-1.813-0.896v-17.804l1.697-0.803h1.303z"></path>
</svg>

<svg xmlns="http://www.w3.org/2000/svg" width="24" height="24" viewBox="0 0 24 24"><path d="M20.109.747L8.223 6.372H.749v9.925l2.446 6.95h5.374l-2.183-6h1.68l12.143 6.003h3.034L23.247.747zm-12.609 15H4.874l.003 1.732 1.552 4.268h-2.17L2.25 16.041V7.872H7.5zm1.505-8.086l8.244-3.901v16.353l-8.244-4.076zM21.746 21.75h-1.184l-1.813-.896V3.05l1.697-.803h1.303z"/></svg>
